frontend/public/svg/food/cutlery.svg

<svg width="77" height="157" viewBox="0 0 77 157" fill="none" xmlns="http://www.w3.org/2000/svg">
<g clip-path="url(#clip0)">
<path d="M57.0095 9.16577C56.5212 8.11563 56.0327 7.06504 55.5654 6.01096C54.6078 3.85423 52.8192 2.32923 49.9372 1.21149C49.5293 1.01585 49.0839 0.91029 48.6315 0.901909C48.1793 0.893529 47.7306 0.982384 47.3157 1.16278C46.9562 1.36639 46.6453 1.64574 46.4043 1.98128C46.1632 2.31681 45.9979 2.70049 45.9197 3.10615C45.5846 4.45625 45.4157 5.84221 45.4159 7.23326C45.3653 10.5884 45.3408 13.9442 45.3172 17.2994C45.2758 22.9275 45.2347 28.7482 45.0601 34.4642C44.8127 42.6028 44.4912 50.8723 44.1808 58.8724C43.8585 67.1748 43.5239 75.761 43.2719 84.2074C42.8472 98.4316 42.5323 112.895 42.2278 126.884L41.9765 138.348C41.8997 141.837 41.9022 145.469 41.9855 149.144C41.9223 150.493 42.2 151.837 42.7925 153.051C43.1633 153.667 44.5053 155.706 46.2196 156.071C46.4377 156.117 46.66 156.141 46.8831 156.141C48.6709 156.141 49.9023 154.525 50.3244 152.855C50.6741 151.393 50.8486 149.895 50.8441 148.392C50.8879 142.209 50.9175 136.027 50.9319 129.844C50.9447 126.045 50.9589 122.246 50.9755 118.447C50.9795 117.662 51.0312 116.886 51.0902 115.986C51.1067 115.737 51.1232 115.48 51.1396 115.214C52.8776 115.214 54.5976 115.223 56.2993 115.24C60.7703 115.269 64.9917 115.298 69.2946 115.168C74.2663 115.019 76.087 113.156 76.2517 108.048C76.2616 107.23 76.2209 106.412 76.1284 105.599L76.0706 104.952C75.9735 103.787 75.8678 102.623 75.7615 101.459C75.5646 99.3144 75.3631 97.0959 75.2311 94.9156L75.0894 92.5423C74.433 81.504 73.7485 70.0896 71.217 59.0942C68.442 47.0537 65.185 34.3312 60.9693 19.0576C59.9237 15.6571 58.5992 12.3484 57.0095 9.16577ZM68.0357 106.493H51.4793C51.3238 95.9178 51.6426 84.8874 51.9511 74.2147C52.087 69.5114 52.2275 64.6489 52.328 59.8563C52.5564 48.8486 52.7778 37.8411 52.9926 26.833L53.1958 16.5861C60.9845 43.0004 68.4695 73.9508 68.0344 106.493H68.0357Z" fill="black"/>
<path d="M7.89119 26.9438C7.51314 23.5965 7.34444 20.1634 7.18101 16.8404C7.10619 15.3013 7.03071 13.762 6.93488 12.2242C6.89507 11.5758 6.85691 10.9274 6.82016 10.2789C6.69873 8.1563 6.57255 5.96259 6.33495 3.80783C6.2452 3.31513 6.02572 2.85495 5.69912 2.47529C5.37253 2.09562 4.95058 1.81018 4.47683 1.64782C3.65247 1.48505 2.86628 2.35561 2.22964 3.0592C1.85829 3.54405 1.65434 4.13613 1.64957 4.74684C1.58394 6.91931 1.51096 9.09158 1.43613 11.2641C1.2307 17.1711 1.01775 23.275 1.06566 29.2851C1.10072 31.4229 1.60717 33.5265 2.54883 35.446C3.49049 37.3655 4.84401 39.0536 6.51314 40.3897C8.19659 41.7004 10.0058 42.841 11.9138 43.7957C12.7014 44.2256 13.5142 44.6671 14.336 45.1456C14.2566 47.427 14.1601 49.7268 14.0629 52.0371C13.8385 57.383 13.6038 62.91 13.5867 68.3904C13.5158 88.028 13.5275 107.994 13.5393 127.303C13.5436 134.594 13.5471 141.884 13.5489 149.175C13.5489 149.422 13.5484 149.67 13.5438 149.917C13.5366 150.681 13.5289 151.47 13.5912 152.257C13.8104 155.007 15.3603 156.827 17.4639 156.827C17.5052 156.827 17.5456 156.827 17.5869 156.827C19.7785 156.754 21.2152 154.862 21.2487 152.007C21.2664 150.437 21.2209 148.848 21.1776 147.312C21.1395 145.98 21.0999 144.604 21.1026 143.254C21.1388 125.957 21.1848 108.661 21.2404 91.3648L21.2794 77.6251C21.286 75.3883 21.2911 73.1515 21.2942 70.9147C21.304 64.951 21.3152 58.7862 21.3749 52.7236C21.3946 50.7585 21.5258 48.7522 21.6525 46.8114C21.7017 46.054 21.7508 45.2967 21.7941 44.5386C28.5032 42.1207 32.5046 37.2591 34.7401 28.8442C36.887 20.7607 36.9721 12.7402 36.7752 5.96016L36.7694 5.71531C36.7563 4.99925 36.7401 4.10628 36.2156 3.5694C35.2791 2.61049 34.1813 1.58205 32.9762 1.51642C31.8335 1.45079 30.5305 2.82894 30.0324 3.84757C29.7066 4.65297 29.558 5.51912 29.5965 6.38704C29.5873 6.72111 29.5794 7.05507 29.5452 7.3767C29.3726 9.05102 29.2225 10.7293 29.0729 12.4082C28.7204 16.3462 28.3565 20.4155 27.6916 24.3575C27.2604 26.908 26.1691 29.4356 25.113 31.8798C24.905 32.3622 24.6973 32.8441 24.4945 33.3238C24.292 33.8464 23.9842 34.322 23.5901 34.7205C23.196 35.1189 22.724 35.4319 22.2037 35.6403C22.2011 35.2661 22.1984 34.899 22.1954 34.5384C22.1835 33.2067 22.1719 31.9487 22.2146 30.7029C22.2553 29.5176 22.3026 28.3323 22.3499 27.1469C22.6222 20.3545 22.9033 13.3305 21.848 6.41204C21.7515 5.32372 21.4293 4.26766 20.9026 3.31045C20.5882 2.9382 20.1893 2.64702 19.7386 2.46183C19.2879 2.27664 18.7991 2.20282 18.3138 2.24647C17.326 2.34558 16.6668 3.72446 16.5453 4.00012C16.3796 4.45656 16.3252 4.94588 16.387 5.42753C16.3962 5.59096 16.4057 5.75586 16.4005 5.91273C16.3204 8.09526 16.2418 10.278 16.1653 12.4614C15.9565 18.3533 15.7407 24.446 15.4782 30.4344C15.4126 31.8783 15.224 33.3221 15.0218 34.8448C14.9615 35.295 14.902 35.7486 14.8442 36.2094C10.6857 34.556 8.40707 31.5171 7.89119 26.9438Z" fill="black"/>
</g>
<defs>
<clipPath id="clip0">
<rect width="75.4789" height="156.208" fill="white" transform="translate(0.962891 0.775879)"/>
</clipPath>
</defs>
</svg>

<svg xmlns="http://www.w3.org/2000/svg" width="77" height="157" fill="none" viewBox="0 0 77 157"><g fill="#000" clip-path="url(#a)"><path d="M57.01 9.166c-.489-1.05-.977-2.101-1.445-3.155-.957-2.157-2.746-3.682-5.628-4.8a3.16 3.16 0 0 0-2.621-.048 2.85 2.85 0 0 0-1.396 1.943 17 17 0 0 0-.504 4.127c-.05 3.355-.075 6.711-.099 10.066-.041 5.628-.082 11.45-.257 17.165-.247 8.139-.569 16.408-.88 24.408-.322 8.303-.656 16.889-.908 25.335-.425 14.225-.74 28.688-1.044 42.677l-.252 11.464c-.076 3.489-.074 7.121.01 10.796a8.05 8.05 0 0 0 .806 3.907c.371.616 1.713 2.655 3.428 3.02q.328.07.663.07c1.788 0 3.02-1.616 3.441-3.286.35-1.462.525-2.96.52-4.463q.066-9.274.088-18.548.02-5.698.043-11.397c.005-.785.056-1.561.115-2.461l.05-.772q2.607 0 5.16.026c4.47.029 8.692.058 12.995-.072 4.971-.149 6.792-2.012 6.957-7.12q.015-1.228-.124-2.449l-.057-.647a443 443 0 0 0-.31-3.493c-.196-2.145-.398-4.363-.53-6.543l-.142-2.374c-.656-11.038-1.34-22.452-3.872-33.448-2.775-12.04-6.032-24.763-10.248-40.036a64.7 64.7 0 0 0-3.96-9.892m11.026 97.327H51.479c-.155-10.575.164-21.606.472-32.278.136-4.704.276-9.566.377-14.359q.342-16.51.665-33.023l.203-10.247C60.984 43 68.469 73.951 68.034 106.493zM7.891 26.944c-.378-3.347-.547-6.78-.71-10.104a339 339 0 0 0-.246-4.616q-.06-.973-.115-1.945c-.121-2.123-.247-4.316-.485-6.471a2.82 2.82 0 0 0-1.858-2.16c-.825-.163-1.61.708-2.247 1.411a2.8 2.8 0 0 0-.58 1.688 1542 1542 0 0 1-.214 6.517c-.205 5.907-.418 12.011-.37 18.021A14.53 14.53 0 0 0 6.513 40.39a32.4 32.4 0 0 0 5.4 3.406c.788.43 1.601.871 2.423 1.35a953 953 0 0 1-.273 6.891c-.225 5.346-.46 10.873-.476 16.353-.071 19.638-.06 39.604-.048 58.913q.007 10.936.01 21.872.001.371-.005.742c-.007.764-.015 1.553.047 2.34.22 2.75 1.77 4.57 3.873 4.57h.123c2.192-.073 3.628-1.965 3.662-4.82.017-1.57-.028-3.159-.071-4.695-.038-1.332-.078-2.708-.075-4.058q.054-25.945.137-51.89l.04-13.739q.01-3.356.014-6.71c.01-5.964.021-12.129.08-18.191.02-1.965.152-3.972.279-5.913q.075-1.135.141-2.272c6.71-2.418 10.71-7.28 12.946-15.695 2.147-8.083 2.232-16.104 2.035-22.884l-.006-.245c-.013-.716-.029-1.609-.553-2.146-.937-.959-2.035-1.987-3.24-2.053-1.142-.065-2.445 1.313-2.944 2.332a6.1 6.1 0 0 0-.436 2.539c-.009.334-.017.668-.05.99a365 365 0 0 0-.473 5.031c-.353 3.938-.716 8.008-1.381 11.95-.432 2.55-1.523 5.078-2.579 7.522q-.313.724-.619 1.444a4.1 4.1 0 0 1-2.29 2.316l-.009-1.102c-.012-1.331-.023-2.59.02-3.835.04-1.185.088-2.37.135-3.556.272-6.792.553-13.816-.502-20.735a7.9 7.9 0 0 0-.945-3.102 3.03 3.03 0 0 0-2.59-1.064c-.987.1-1.646 1.478-1.768 1.754-.165.457-.22.946-.158 1.428.01.163.019.328.014.485q-.121 3.273-.236 6.548c-.208 5.892-.424 11.985-.687 17.973-.065 1.444-.254 2.888-.456 4.41q-.09.676-.178 1.365c-4.158-1.653-6.437-4.692-6.953-9.265"/></g><defs><clipPath id="a"><path fill="#fff" d="M.963.776h75.479v156.208H.962z"/></clipPath></defs></svg>
